elementary-icon-theme/elementary/panel/22/rhythmbox-notplaying.svg

<?xml version="1.0" encoding="UTF-8" standalone="no"?>
<!-- Created with Inkscape (http://www.inkscape.org/) -->
<svg
   xmlns:svg="http://www.w3.org/2000/svg"
   xmlns="http://www.w3.org/2000/svg"
   xmlns:xlink="http://www.w3.org/1999/xlink"
   version="1.0"
   width="22"
   height="22"
   id="svg3201">
  <defs
     id="defs3203">
    <linearGradient
       id="linearGradient3587-6-5">
      <stop
         id="stop3589-9-2"
         style="stop-color:#000000;stop-opacity:1"
         offset="0" />
      <stop
         id="stop3591-7-4"
         style="stop-color:#363636;stop-opacity:1"
         offset="1" />
    </linearGradient>
    <linearGradient
       x1="12.5"
       y1="4"
       x2="12.5"
       y2="20.074728"
       id="linearGradient3193"
       xlink:href="#linearGradient3587-6-5"
       gradientUnits="userSpaceOnUse" />
  </defs>
  <g
     transform="translate(-1,-1)"
     id="g2388"
     style="opacity:0.4">
    <g
       id="layer1">
      <path
         d="M 15.75,9.5000001 C 15.75,11.294926 14.294926,12.75 12.5,12.75 C 10.705075,12.75 9.2500001,11.294926 9.2500001,9.5000001 C 9.2500001,7.7050746 10.705075,6.2499999 12.5,6.2499999 C 14.294926,6.2499999 15.75,7.7050746 15.75,9.5000001 L 15.75,9.5000001 z M 14.25,9.5000001 C 14.25,10.466498 13.466499,11.25 12.5,11.25 C 11.533502,11.25 10.75,10.466498 10.75,9.5000001 C 10.75,8.5335017 11.533502,7.75 12.5,7.75 C 13.466499,7.75 14.25,8.5335017 14.25,9.5000001 L 14.25,9.5000001 z"
         id="path3201"
         style="opacity:0.3;fill:none;fill-opacity:1;fill-rule:evenodd;stroke:#000000;stroke-width:0.48934197;stroke-linecap:round;stroke-linejoin:miter;marker:none;marker-start:none;marker-mid:none;marker-end:none;stroke-miterlimit:4;stroke-dasharray:none;stroke-dashoffset:0;stroke-opacity:1;visibility:visible;display:inline;overflow:visible;enable-background:accumulate" />
      <path
         d="M 8.5,5 C 7.669,5 7,5.669 7,6.5 L 7,19.5 C 7,20.331 7.669,21 8.5,21 L 16.5,21 C 17.331,21 18,20.331 18,19.5 L 18,6.5 C 18,5.669 17.331,5 16.5,5 L 8.5,5 z M 12.5,7 C 14.433374,7 16.000462,8.5671386 16,10.5 C 16.000462,12.432862 14.433374,14 12.5,14 C 10.566626,14 8.999538,12.432862 9,10.5 C 8.9995376,8.5671389 10.566626,7 12.5,7 z M 10,17 C 10.552428,17 11.000202,17.447775 11,18 C 11.000202,18.552225 10.552428,19 10,19 C 9.4475722,19 8.999798,18.552225 9,18 C 8.9997981,17.447775 9.4475726,17 10,17 z M 15,17 C 15.552428,17 16.000202,17.447775 16,18 C 16.000202,18.552225 15.552428,19 15,19 C 14.447572,19 13.999798,18.552225 14,18 C 13.999798,17.447775 14.447572,17 15,17 z M 14,10.5 C 14,11.328427 13.328427,12 12.5,12 C 11.671573,12 11,11.328427 11,10.5 C 11,9.6715728 11.671573,8.9999999 12.5,8.9999999 C 13.328427,8.9999999 14,9.6715728 14,10.5 z"
         id="path3196"
         style="opacity:0.6;fill:#ffffff;fill-opacity:1;fill-rule:evenodd;stroke:none;stroke-width:0.99999994;stroke-linecap:round;stroke-linejoin:miter;marker:none;marker-start:none;marker-mid:none;marker-end:none;stroke-miterlimit:4;stroke-dasharray:none;stroke-dashoffset:0;stroke-opacity:1;visibility:visible;display:inline;overflow:visible;enable-background:accumulate" />
      <path
         d="M 8.5,4 C 7.669,4 7,4.669 7,5.5 L 7,18.5 C 7,19.331 7.669,20 8.5,20 L 16.5,20 C 17.331,20 18,19.331 18,18.5 L 18,5.5 C 18,4.669 17.331,4 16.5,4 L 8.5,4 z M 12.5,6 C 14.433374,6 16.000462,7.5671386 16,9.5 C 16.000462,11.432862 14.433374,13 12.5,13 C 10.566626,13 8.999538,11.432862 9,9.5 C 8.9995376,7.5671389 10.566626,6 12.5,6 z M 10,16 C 10.552428,16 11.000202,16.447775 11,17 C 11.000202,17.552225 10.552428,18 10,18 C 9.4475722,18 8.999798,17.552225 9,17 C 8.9997981,16.447775 9.4475726,16 10,16 z M 15,16 C 15.552428,16 16.000202,16.447775 16,17 C 16.000202,17.552225 15.552428,18 15,18 C 14.447572,18 13.999798,17.552225 14,17 C 13.999798,16.447775 14.447572,16 15,16 z M 14,9.4999999 C 14,10.328427 13.328427,11 12.5,11 C 11.671573,11 11,10.328427 11,9.4999999 C 11,8.6715728 11.671573,7.9999999 12.5,7.9999999 C 13.328427,7.9999999 14,8.6715728 14,9.4999999 z"
         id="rect2406"
         style="opacity:0.7;fill:url(#linearGradient3193);fill-opacity:1;fill-rule:evenodd;stroke:none;stroke-width:0.99999994;stroke-linecap:round;stroke-linejoin:miter;marker:none;marker-start:none;marker-mid:none;marker-end:none;stroke-miterlimit:4;stroke-dasharray:none;stroke-dashoffset:0;stroke-opacity:1;visibility:visible;display:inline;overflow:visible;enable-background:accumulate" />
    </g>
  </g>
</svg>

<?xml version="1.0" encoding="UTF-8" standalone="no"?>
<!-- Created with Inkscape (http://www.inkscape.org/) -->

<svg
   xmlns:dc="http://purl.org/dc/elements/1.1/"
   xmlns:cc="http://creativecommons.org/ns#"
   xmlns:rdf="http://www.w3.org/1999/02/22-rdf-syntax-ns#"
   xmlns:svg="http://www.w3.org/2000/svg"
   xmlns="http://www.w3.org/2000/svg"
   xmlns:xlink="http://www.w3.org/1999/xlink"
   xmlns:sodipodi="http://sodipodi.sourceforge.net/DTD/sodipodi-0.dtd"
   xmlns:inkscape="http://www.inkscape.org/namespaces/inkscape"
   version="1.0"
   width="15"
   height="22"
   id="svg3201"
   inkscape:version="0.48.0 r9654"
   sodipodi:docname="rhythmbox-notplaying.svg">
  <metadata
     id="metadata15">
    <rdf:RDF>
      <cc:Work
         rdf:about="">
        <dc:format>image/svg+xml</dc:format>
        <dc:type
           rdf:resource="http://purl.org/dc/dcmitype/StillImage" />
      </cc:Work>
    </rdf:RDF>
  </metadata>
  <sodipodi:namedview
     pagecolor="#ffffff"
     bordercolor="#666666"
     borderopacity="1"
     objecttolerance="10"
     gridtolerance="10"
     guidetolerance="10"
     inkscape:pageopacity="0"
     inkscape:pageshadow="2"
     inkscape:window-width="1016"
     inkscape:window-height="636"
     id="namedview13"
     showgrid="false"
     inkscape:zoom="6.6136365"
     inkscape:cx="11"
     inkscape:cy="11.128952"
     inkscape:window-x="0"
     inkscape:window-y="24"
     inkscape:window-maximized="0"
     inkscape:current-layer="svg3201" />
  <defs
     id="defs3203">
    <linearGradient
       id="linearGradient3587-6-5">
      <stop
         id="stop3589-9-2"
         style="stop-color:#000000;stop-opacity:1"
         offset="0" />
      <stop
         id="stop3591-7-4"
         style="stop-color:#363636;stop-opacity:1"
         offset="1" />
    </linearGradient>
    <linearGradient
       x1="12.5"
       y1="4"
       x2="12.5"
       y2="20.074728"
       id="linearGradient3193"
       xlink:href="#linearGradient3587-6-5"
       gradientUnits="userSpaceOnUse" />
  </defs>
  <g
     transform="translate(-5,-1)"
     id="g2388"
     style="opacity:0.4">
    <g
       id="layer1">
      <path
         d="M 15.75,9.5000001 C 15.75,11.294926 14.294926,12.75 12.5,12.75 c -1.794925,0 -3.2499999,-1.455074 -3.2499999,-3.2499999 0,-1.7949255 1.4550749,-3.2500002 3.2499999,-3.2500002 1.794926,0 3.25,1.4550747 3.25,3.2500002 l 0,0 z m -1.5,0 C 14.25,10.466498 13.466499,11.25 12.5,11.25 11.533502,11.25 10.75,10.466498 10.75,9.5000001 10.75,8.5335017 11.533502,7.75 12.5,7.75 c 0.966499,0 1.75,0.7835017 1.75,1.7500001 l 0,0 z"
         id="path3201"
         style="opacity:0.3;fill:none;stroke:#000000;stroke-width:0.48934197;stroke-linecap:round;stroke-linejoin:miter;stroke-miterlimit:4;stroke-opacity:1;stroke-dasharray:none;stroke-dashoffset:0;marker:none;visibility:visible;display:inline;overflow:visible;enable-background:accumulate"
         inkscape:connector-curvature="0" />
      <path
         d="M 8.5,5 C 7.669,5 7,5.669 7,6.5 l 0,13 C 7,20.331 7.669,21 8.5,21 l 8,0 c 0.831,0 1.5,-0.669 1.5,-1.5 l 0,-13 C 18,5.669 17.331,5 16.5,5 l -8,0 z m 4,2 c 1.933374,0 3.500462,1.5671386 3.5,3.5 4.62e-4,1.932862 -1.566626,3.5 -3.5,3.5 C 10.566626,14 8.999538,12.432862 9,10.5 8.9995376,8.5671389 10.566626,7 12.5,7 z M 10,17 c 0.552428,0 1.000202,0.447775 1,1 2.02e-4,0.552225 -0.447572,1 -1,1 -0.5524278,0 -1.000202,-0.447775 -1,-1 -2.019e-4,-0.552225 0.4475726,-1 1,-1 z m 5,0 c 0.552428,0 1.000202,0.447775 1,1 2.02e-4,0.552225 -0.447572,1 -1,1 -0.552428,0 -1.000202,-0.447775 -1,-1 -2.02e-4,-0.552225 0.447572,-1 1,-1 z M 14,10.5 C 14,11.328427 13.328427,12 12.5,12 11.671573,12 11,11.328427 11,10.5 c 0,-0.8284272 0.671573,-1.5000001 1.5,-1.5000001 0.828427,0 1.5,0.6715729 1.5,1.5000001 z"
         id="path3196"
         style="opacity:0.6;fill:#ffffff;fill-opacity:1;fill-rule:evenodd;stroke:none;stroke-width:0.99999994;marker:none;visibility:visible;display:inline;overflow:visible;enable-background:accumulate"
         inkscape:connector-curvature="0" />
      <path
         d="M 8.5,4 C 7.669,4 7,4.669 7,5.5 l 0,13 C 7,19.331 7.669,20 8.5,20 l 8,0 c 0.831,0 1.5,-0.669 1.5,-1.5 l 0,-13 C 18,4.669 17.331,4 16.5,4 l -8,0 z m 4,2 C 14.433374,6 16.000462,7.5671386 16,9.5 16.000462,11.432862 14.433374,13 12.5,13 10.566626,13 8.999538,11.432862 9,9.5 8.9995376,7.5671389 10.566626,6 12.5,6 z M 10,16 c 0.552428,0 1.000202,0.447775 1,1 2.02e-4,0.552225 -0.447572,1 -1,1 -0.5524278,0 -1.000202,-0.447775 -1,-1 -2.019e-4,-0.552225 0.4475726,-1 1,-1 z m 5,0 c 0.552428,0 1.000202,0.447775 1,1 2.02e-4,0.552225 -0.447572,1 -1,1 -0.552428,0 -1.000202,-0.447775 -1,-1 -2.02e-4,-0.552225 0.447572,-1 1,-1 z M 14,9.4999999 C 14,10.328427 13.328427,11 12.5,11 11.671573,11 11,10.328427 11,9.4999999 c 0,-0.8284271 0.671573,-1.5 1.5,-1.5 0.828427,0 1.5,0.6715729 1.5,1.5 z"
         id="rect2406"
         style="opacity:0.7;fill:url(#linearGradient3193);fill-opacity:1;fill-rule:evenodd;stroke:none;stroke-width:0.99999994;marker:none;visibility:visible;display:inline;overflow:visible;enable-background:accumulate"
         inkscape:connector-curvature="0" />
    </g>
  </g>
</svg>
